X:1
T:Lamentatio Jeremiae : Teth
T:Gregorio Allegri
T:(Lectio I Sabato Sancto ad Matutinum)
T:Source : Unidentifiable choir book---Roma---1840. Editor : André Vierendeels (17/05/17).
T:Notes : Original clefs : C1, C3, C4, F4 Original note values have been halved m 1 in T : "C"  not in original.
T:Lamentatio Jeremiae : Teth
T:©
T:©
T:©
T:©
C:Gregorio Allegri
Z:©
%%score [ 1 2 3 4 ]
L:1/8
Q:1/4=120
M:2/2
K:F
V:1 treble nm="Soprano" snm="S"
V:2 treble nm="Alto" snm="A"
V:3 treble-8 nm="Tenor" snm="T"
V:4 bass nm="Bass" snm="B"
V:1
 A4 =B4 | c6 =B2 | !fermata!c8 | A4 F4 | F4 G4- | G6 G2 | G4 z4 | z8 | z8 | c6 c2 | A2 B2 B2 c2 | %11
w: Teth. _|_ _||Bo- nus|est Do-|* mi-|nus,|||a- ni-|mae quae- ren- ti|
 A6 G2- | GF F4 E2 | !fermata!F8 | c8 | B4 A3 G | F2 D2 d4 | !fermata!^c8 | z4 A4- | A2 A2 A2 A2- | %20
w: il- *||lum.|Teth.|_ _ _|||Bo-|* num est prae-|
 A2 G2 F2 E2 | F2 G2 A4 | G2 A2 B4- | B2 A2 A4- | A4 z4 | z8 | c6 c2 | d4 c2 _e2- | e2 d2 c4 | %29
w: * sto- la- ri|cum si- len-||* ti- o|_||sa- lu-|ta- re De-||
 !fermata!B8 | z2 B4 A2 | Bc d4 c2 | !fermata!d8 | _e6 dc | d2 d4 c2- | c2 =BA B4 | c4 z4 | %37
w: i.|Teth. _|_ _ _ _||Bo- * *|num est vi-||ro,|
 z2 c4 =B2 | _e3 e d4 | c4 G2 c2- | c2 B2 A2 G2 | ^F4 F2 F2 | G4 G2 B2- | B2 A2 G2 F2 | E4 E2 E2 | %45
w: cum por-|ta- ve- rit|ju- gum ab|_ a- do- le-|scen- ti- a|su- a, ab|_ a- do- le-|scen- ti- a|
 F6 E2 | !fermata!F8 |] %47
w: su- *|a.|
V:2
 F8 | E4 F4 | !fermata!E8 | z4 D4 | C2 C2 _E4- | E2 _E2 D4 | z4 z2 D2 | F2 E2 F2 D2 | C4 D4 | %9
w: Teth.|_ _||Bo-|nus est Do-|* mi- nus,|spe-|ran- ti- bus in|e- um,|
 z2 F4 _E2 | D2 D2 G4- | G2 F_E D4- | D2 B,2 C4 | !fermata!C8 | z4 A4- | A2 GF E2 A2- | A2 GF G4 | %17
w: a- ni-|mae quae- ren-||* ti il-|lum.|Teth.|_ _ _ _ _||
 !fermata!A8 | F4 E4 | F2 F4 E2 | D4 F2 A2- | A2 G4 F2- | F2 E2 D3 D | C8 | z2 F4 F2 | D4 G3 F | %26
w: |Bo- num|est prae- sto-|la- ri cum|_ si- len-|* * * ti-|o|sa- lu-|ta- * *|
 _E4 C4 | F4 G4 | F8 | !fermata!F8 | z4 F4 | _E2 D2 G4 | !fermata!^F8 | z4 G4 | G2 F2 _E4 | D8 | %36
w: * re|De- *||i.|Teth.|_ _ _||Bo-|num est vi-|ro,|
 _E4 F4 | G3 G G4 | G4 G2 G2- | G2 F2 _E2 C2 | _E3 E E4 | z4 D4- | D2 C2 B,2 G,2 | D6 D2 | C8 | %45
w: cum por-|ta- ve- rit|ju- gum ab|_ a- do- le-|scen- ti- a,|ab|_ a- di- le-|scen- ti-|a|
 C8 | !fermata!C8 |] %47
w: su-|a.|
V:3
 c4 d4 | c4 d4 | !fermata!c8 | c6 B2- | B2 A2 c4- | c2 c2 =B4 | z2 G2 B2 A2 | B2 c3 B B2- | %8
w: Teth. _|_ _||Bo- nus|_ est Do-|* mi- nus,|spe- ran- ti-|bus in _ e-|
 B2 A2 B4 | A6 G2 | F4 z2 G2 | c4 B4 | A2 GF G4 | !fermata!A8 | z4 f4- | f2 ed ^c4 | d8 | %17
w: * * um,|a- ni-|mae quae-|ren- ti|il- * * *|lum.|Teth.|_ _ _ _||
 !fermata!e8 | z2 d4 ^c2 | d4 z4 | z2 d4 c2 | B4 A4 | c2 c2 F3 F | F2 z2 c4- | c2 c2 c4 | %25
w: |Bo- num|est|prae- sto-|la- ri|cum si- len- ti-|o sa-|* lu- ta-|
 BA B2 G4 | c4 A4 | B6 c2 | A2 B4 A2 | !fermata!B8 | d4 c4 | B3 A G4 | !fermata!A8 | c6 =BA | %34
w: * * * re,|sa- lu-|ta- re|De- * *|i.|Teth. _|_ _ _||Bo- * *|
 =B2 B2 c4 | G8 | z2 c4 =B2 | _e3 e d4 | c4 G4 | z4 z2 _e2- | e2 d2 c2 B2 | A4 A2 A2 | B4 B2 d2- | %43
w: num est vi-|ro,|cum por-|ta- ve- rit|ju- gum|ab|_ a- do- le-|scen- ti- a|su- a, ab|
 d2 c2 B2 A2 | G4 G2 G2 | A4 G4 | !fermata!F8 |] %47
w: _ a- do- le-|scen- ti- a|su- *|a.|
V:4
 F,4 D,4 | A,,4 D,4 | !fermata!C,8 | F,4 D,4 | F,4 C,4- | C,2 C,2 G,,4 | C,4 D,4- | %7
w: Teth. _|_ _||Bo- nus|est Do-|* mi- nus|spe- ran-|
 D,2 C,2 D,2 B,,2 | F,4 B,,4 | F,6 C,2 | D,4 _E,4 | F,4 B,,4 | D,4 C,4 | !fermata!F,,8 | F,8 | %15
w: * ti- bus in|e- um,|a- ni-|mae quae-|ren- ti|il- *|lum.|Teth.|
 G,4 A,4 | B,8 | !fermata!A,8 | D,4 A,,4 | D,2 D,4 C,2 | B,,4 A,,4 | D,2 E,2 F,4 | C,4 B,,3 B,, | %23
w: _ _|||Bo- num|est prae- sto-|la- ri|cum si- len-|* * ti-|
 F,,8 | F,6 F,2 | G,3 F, _E,4 | C,4 F,4 | D,4 _E,4 | F,4 F,,4 | !fermata!B,,8 | B,4 F,4 | %31
w: o|sa- lu-|ta- * *|re De-|||i.|Teth. _|
 G,3 F, _E,4 | !fermata!D,8 | z8 | z8 | z2 G,4 F,2 | _E,3 E, D,4 | C,4 G,,4 | C6 =B,2 | C6 C,2 | %40
w: _ _ _||||Cum por-|ta- ve- rit|ju- gum,|cum por-|ta- ve-|
 C,4 C,4 | D,2 D,4 C,2 | B,,2 A,,2 G,,4- | G,,2 A,,2 B,,4 | C,6 B,,2 | A,,4 C,4 | !fermata!F,,8 |] %47
w: rit ju-|gum ab a-|do- le- scen-||* ti|a su-|a.|

